src/assets/duotone/SmsSearch.svg

<?xml version="1.0" encoding="UTF-8"?>
<svg width="24" height="24" viewBox="0 0 24 24" xmlns="http://www.w3.org/2000/svg">
 <path d="m17 20.5h-10c-3 0-5-1.5-5-5v-7c0-3.5 2-5 5-5h10c3 0 5 1.5 5 5v7c0 3.5-2 5-5 5z" opacity=".4"/>
 <path d="m17.586 8.532c0.2585 0.32365 0.2057 0.79558-0.1179 1.0541l-3.1309 2.5008c-1.3034 1.0376-3.3809 1.0376-4.6843 0l-0.00185-0.0015-3.12-2.5c-0.32325-0.25901-0.37532-0.73102-0.11631-1.0543 0.25901-0.32325 0.73102-0.37532 1.0543-0.11631l3.119 2.4993c0.7566 0.6015 2.0582 0.6014 2.8145-5e-4 2e-4 0-1e-4 1e-4 0 0l3.1295-2.4995c0.3236-0.2585 0.7955-0.20569 1.054 0.11795z" clip-rule="evenodd" fill-rule="evenodd"/>
 <path d="m22.66 21.47-0.74-0.74c0.38-0.58 0.61-1.28 0.61-2.03 0-2.04-1.66-3.7-3.7-3.7s-3.7 1.66-3.7 3.7 1.66 3.7 3.7 3.7c0.75 0 1.45-0.23 2.03-0.61l0.74 0.74c0.15 0.15 0.34 0.22 0.53 0.22s0.38-0.07 0.53-0.22c0.29-0.29 0.29-0.77 0-1.06z"/>
</svg>

<svg width="24" height="24" viewBox="0 0 24 24"  xmlns="http://www.w3.org/2000/svg">
<path opacity="0.4" d="M17 20.5H7C4 20.5 2 19 2 15.5V8.5C2 5 4 3.5 7 3.5H17C20 3.5 22 5 22 8.5V15.5C22 19 20 20.5 17 20.5Z" />
<path fill-rule="evenodd" clip-rule="evenodd" d="M17.586 8.53196C17.8445 8.85561 17.7917 9.32754 17.4681 9.58605L14.3372 12.0868C13.0338 13.1244 10.9563 13.1244 9.65289 12.0868L9.65104 12.0853L6.53105 9.58531C6.2078 9.3263 6.15573 8.85429 6.41474 8.53105C6.67375 8.2078 7.14576 8.15573 7.46901 8.41474L10.588 10.914C11.3446 11.5155 12.6462 11.5154 13.4025 10.9135C13.4027 10.9135 13.4024 10.9136 13.4025 10.9135L16.532 8.41401C16.8556 8.15551 17.3275 8.20832 17.586 8.53196Z" />
<path d="M22.6599 21.47L21.9199 20.73C22.2999 20.15 22.5299 19.45 22.5299 18.7C22.5299 16.66 20.8699 15 18.8299 15C16.7899 15 15.1299 16.66 15.1299 18.7C15.1299 20.74 16.7899 22.4 18.8299 22.4C19.5799 22.4 20.2799 22.17 20.8599 21.79L21.5999 22.53C21.7499 22.68 21.9399 22.75 22.1299 22.75C22.3199 22.75 22.5099 22.68 22.6599 22.53C22.9499 22.24 22.9499 21.76 22.6599 21.47Z" />
</svg>
